X:105
T: Ez az asszony de szép asszony...
M: 4/4
L: 1/4
K: F
ggfg | dddd | 
ggfg | cccc | 
ddcB | AAAG | 
cdcB | GGGG | 

